Numix-GalliumOS/32/devices/mouse.svg

<?xml version="1.0" encoding="UTF-8" standalone="no"?>
<svg
   xmlns:dc="http://purl.org/dc/elements/1.1/"
   xmlns:cc="http://creativecommons.org/ns#"
   xmlns:rdf="http://www.w3.org/1999/02/22-rdf-syntax-ns#"
   xmlns:svg="http://www.w3.org/2000/svg"
   xmlns="http://www.w3.org/2000/svg"
   xmlns:sodipodi="http://sodipodi.sourceforge.net/DTD/sodipodi-0.dtd"
   xmlns:inkscape="http://www.inkscape.org/namespaces/inkscape"
   width="32"
   height="32"
   viewBox="0 0 32 32"
   id="svg2"
   version="1.1"
   inkscape:version="0.91 r"
   sodipodi:docname="yast-mouse.svg">
  <metadata
     id="metadata10">
    <rdf:RDF>
      <cc:Work
         rdf:about="">
        <dc:format>image/svg+xml</dc:format>
        <dc:type
           rdf:resource="http://purl.org/dc/dcmitype/StillImage" />
        <dc:title />
      </cc:Work>
    </rdf:RDF>
  </metadata>
  <defs
     id="defs8" />
  <sodipodi:namedview
     pagecolor="#ffffff"
     bordercolor="#666666"
     borderopacity="1"
     objecttolerance="10"
     gridtolerance="10"
     guidetolerance="10"
     inkscape:pageopacity="0"
     inkscape:pageshadow="2"
     inkscape:window-width="1920"
     inkscape:window-height="1056"
     id="namedview6"
     showgrid="true"
     showguides="false"
     inkscape:guide-bbox="true"
     inkscape:zoom="11.313708"
     inkscape:cx="-7.8167851"
     inkscape:cy="12.558402"
     inkscape:window-x="0"
     inkscape:window-y="24"
     inkscape:window-maximized="1"
     inkscape:current-layer="svg2">
    <inkscape:grid
       type="xygrid"
       id="grid2998" />
    <sodipodi:guide
       orientation="1,0"
       position="16,5.3898305"
       id="guide3000" />
  </sodipodi:namedview>
  <g
     id="g4145"
     transform="translate(-3e-7,1.1e-6)">
    <rect
       ry="7.4152431"
       y="4.3742046"
       x="8.9820127"
       height="23.728804"
       width="14.274358"
       id="rect3759"
       style="fill:#586e75;fill-opacity:1;stroke:none" />
    <path
       sodipodi:nodetypes="cccsccscccccsssc"
       style="color:#000000;line-height:normal;fill:#839496;fill-opacity:1"
       d="M 15,3.4999988 15,15 l -6.9999996,0 0,-4.240939 C 8.0000004,6.9992956 11.155177,3.973905 15,3.4999988 Z m 2,0 c 3.778611,0.5276562 7,3.5430468 7,7.2590622 L 24,15 16.999999,15 Z M 7.9999996,17 24,17 l 1e-6,4.143202 c 0,4.093672 -3.652742,7.356797 -8,7.356797 -4.34726,0 -8.0000014,-3.263125 -8.0000014,-7.356797 z"
       id="path6"
       inkscape:connector-curvature="0" />
    <path
       id="rect3761"
       d="M 21,5.1464844 21,15 l 1.5,0 0,-8.4003906 C 22.071212,6.0573121 21.565919,5.568791 21,5.1464844 Z M 21,17 l 0,9.871094 c 0.568976,-0.42059 1.072561,-0.913846 1.5,-1.460938 L 22.5,17 21,17 Z"
       style="opacity:0.24567476;fill:#fdf6e3;fill-opacity:1;stroke:none"
       inkscape:connector-curvature="0" />
  </g>
</svg>

<svg xmlns="http://www.w3.org/2000/svg" viewBox="0 0 32 32">
 <g transform="translate(-3e-7,1.1e-6)">
  <rect ry="7.415" y="4.374" x="8.982" height="23.729" width="14.274" rx="7.137" style="fill:#586e75;fill-opacity:1;stroke:none"/>
  <path d="m 15 3.5 0 11.5 l -7 0 0 -4.241 c 0 -3.76 3.155 -6.785 7 -7.259 m 2 0 c 3.779 0.528 7 3.543 7 7.259 l 0 4.241 -7 0 m -9 2 16 0 l 0 4.143 c 0 4.094 -3.653 7.357 -8 7.357 -4.347 0 -8 -3.263 -8 -7.357 z" style="fill:#839496;fill-opacity:1;color:#000"/>
  <path d="m 21 5.146 0 9.854 l 1.5 0 0 -8.4 c -0.429 -0.542 -0.934 -1.031 -1.5 -1.453 m 0 11.854 l 0 9.871 c 0.569 -0.421 1.073 -0.914 1.5 -1.461 l 0 -8.41 -1.5 0" style="fill:#fdf6e3;opacity:0.246;fill-opacity:1;stroke:none"/>
 </g>
</svg>
